X:1
T:Dumbarton Drums
T:Dumbarton Drums
T:McGibbon 1763
C:McGibbon 1763
L:1/8
M:4/4
K:F
V:1 treble 
V:1
|: FG |"F" A3 c ABGA | F2 c>d c2 BA |"Gm" GFGA BAGF | D2 d>e d2 cd |"F" f3 g agfd | %6
 cA"Gm"cd"F" f3 F |"Bb" GAfd"C" cAGF |"Dm" D2 d>e [Fd]2 :: cd |"F" f3 g fgag | f2 a>b a2 gf | %12
"Gm" gfga bagf | d2 g>a g2"Bb" fd |"F" cdfg ag"Bb"fd |"F" cA"C"cd"F" [Af]2 fg | %16
"Dm" [Aa]gfd"Am" [Ec]AGF |"Dm" D2 de [Fd]2 :| %18

